img/icon-tiredness.svg

<svg width="49" height="48" viewBox="0 0 49 48" fill="none" xmlns="http://www.w3.org/2000/svg">
<path d="M31.0857 10.5692C31.0857 10.2158 30.7991 9.9292 30.4457 9.9292H14.6447C12.0159 9.9292 9.53755 11.0826 7.84443 13.0935C6.15131 15.1046 5.43691 17.7439 5.88507 20.3342L7.86763 31.7982C7.92075 32.105 8.18699 32.329 8.49819 32.329H9.96571V41.929C9.96571 42.2825 10.2523 42.569 10.6057 42.569H20.8457C21.1992 42.569 21.4857 42.2825 21.4857 41.929V38.089H23.6683C25.6407 38.089 27.2457 36.4841 27.2457 34.5116V30.409H28.3945C28.882 30.409 29.3321 30.165 29.5977 29.7559C29.8636 29.3468 29.9039 28.8366 29.7059 28.3906L27.2459 22.8578V21.9887C28.0955 22.4722 29.1783 22.3414 29.8783 21.6417L30.2583 21.2617C30.5084 21.0118 30.5084 20.6066 30.2583 20.3567C30.0084 20.1066 29.6033 20.1066 29.3534 20.3567L28.9734 20.7367C28.6671 21.0436 28.1833 21.0914 27.8222 20.8508C27.6411 20.7302 27.4467 20.6398 27.2459 20.5782V19.4287C28.0955 19.9122 29.1783 19.7817 29.8783 19.0817L30.2583 18.7017C30.5084 18.4518 30.5084 18.0466 30.2583 17.7967C30.0084 17.5466 29.6033 17.5466 29.3534 17.7967L28.9734 18.1767C28.6671 18.4836 28.1833 18.5318 27.8222 18.2908C27.6411 18.1702 27.4467 18.0798 27.2459 18.0182V16.4796C29.4014 15.4804 31.0857 13.0794 31.0857 10.5692ZM7.14635 20.1161C6.76299 17.8985 7.37419 15.6396 8.82347 13.918C10.2729 12.1964 12.3947 11.2092 14.6447 11.2092H29.7595C29.4223 13.5561 27.2985 15.6892 25.1382 15.6892H18.4864C16.2582 15.6892 14.4457 17.5017 14.4457 19.7298V22.0892H13.303C12.0982 22.0892 10.9889 22.7007 10.3352 23.7249C9.71675 24.6938 9.63243 25.8321 10.1036 26.8478C10.5295 27.7655 11.3268 28.4258 12.2412 28.6606L10.4782 31.0494H9.03723L7.14635 20.1161ZM25.9657 16.9692V18.0182C25.7649 18.0798 25.5705 18.17 25.3894 18.2908C25.0281 18.5308 24.5441 18.4826 24.2382 18.1767L23.8582 17.7967C23.6083 17.5466 23.2031 17.5466 22.9532 17.7967C22.7031 18.0466 22.7031 18.4518 22.9532 18.7017L23.3332 19.0817C23.7558 19.5041 24.3188 19.7223 24.8857 19.7223C25.2575 19.7223 25.6291 19.6226 25.9657 19.4311V20.5782C25.7649 20.6398 25.5705 20.73 25.3894 20.8508C25.0281 21.0908 24.5441 21.0426 24.2382 20.7367L23.8582 20.3567C23.6083 20.1066 23.2031 20.1066 22.9532 20.3567C22.7031 20.6066 22.7031 21.0118 22.9532 21.2617L23.3332 21.6417C23.7558 22.0641 24.3188 22.2823 24.8857 22.2823C25.2575 22.2823 25.6291 22.1826 25.9657 21.9911V22.994C25.9657 23.0836 25.9844 23.1721 26.0211 23.254L28.5364 28.911C28.5646 28.9746 28.5455 29.0266 28.5246 29.0588C28.5036 29.091 28.4639 29.1295 28.3947 29.1295H26.6059C26.2524 29.1295 25.9659 29.4161 25.9659 29.7695V31.7297C24.9284 31.645 23.8673 31.7916 22.9836 32.1764L22.5102 32.3826C22.186 32.5239 22.038 32.901 22.179 33.2252C22.284 33.4662 22.5193 33.6098 22.7662 33.6098C22.8515 33.6095 22.9383 33.5926 23.0215 33.5564L23.495 33.3502C24.219 33.0346 25.1041 32.9231 25.9659 33.0116V34.5121C25.9659 35.779 24.9351 36.8095 23.6684 36.8095H20.0478C18.2572 36.8095 16.5737 36.1122 15.3075 34.846L14.2583 33.797C14.0084 33.547 13.6033 33.547 13.3534 33.797C13.1033 34.047 13.1033 34.4521 13.3534 34.702L14.4023 35.7511C15.9102 37.2593 17.9151 38.0895 20.0476 38.0895H20.2057V41.2895H11.2457V32.1649L13.9548 28.4942C14.0982 28.2998 14.1201 28.0414 14.0111 27.8257C13.9023 27.61 13.6815 27.4742 13.4399 27.4742H12.9783C12.255 27.4742 11.5983 27.0279 11.2649 26.3092C10.9811 25.698 11.0355 25.007 11.414 24.4138C11.8315 23.7598 12.5379 23.3695 13.3031 23.3695H15.0859C15.4393 23.3695 15.7259 23.083 15.7259 22.7295V19.7302C15.7259 18.2079 16.9643 16.9695 18.4865 16.9695H25.9657V16.9692Z" fill="url(#paint0_linear)"/>
<path d="M40.0458 9.28924C40.3992 9.28924 40.6858 9.00268 40.6858 8.64924V7.36925C40.6858 7.01581 40.3992 6.72925 40.0458 6.72925C39.6923 6.72925 39.4058 7.01581 39.4058 7.36925V8.64924C39.4058 9.00268 39.6923 9.28924 40.0458 9.28924Z" fill="url(#paint1_linear)"/>
<path d="M40.0458 10.5693C39.6923 10.5693 39.4058 10.8559 39.4058 11.2093V12.4893C39.4058 12.8428 39.6923 13.1293 40.0458 13.1293C40.3992 13.1293 40.6858 12.8428 40.6858 12.4893V11.2093C40.6858 10.8559 40.3992 10.5693 40.0458 10.5693Z" fill="url(#paint2_linear)"/>
<path d="M37.4857 10.5692H38.7657C39.1191 10.5692 39.4057 10.2826 39.4057 9.92918C39.4057 9.57574 39.1191 9.28918 38.7657 9.28918H37.4857C37.1323 9.28918 36.8457 9.57574 36.8457 9.92918C36.8457 10.2826 37.1323 10.5692 37.4857 10.5692Z" fill="url(#paint3_linear)"/>
<path d="M29.8072 6.79915C30.1851 6.79915 30.4914 6.49275 30.4914 6.11483C30.4914 5.7369 30.1851 5.43066 29.8072 5.43066C29.4293 5.43066 29.123 5.73706 29.123 6.11483C29.123 6.49275 29.4293 6.79915 29.8072 6.79915Z" fill="url(#paint4_linear)"/>
<path d="M42.6058 9.28918H41.3258C40.9723 9.28918 40.6858 9.57574 40.6858 9.92918C40.6858 10.2826 40.9723 10.5692 41.3258 10.5692H42.6058C42.9592 10.5692 43.2458 10.2826 43.2458 9.92918C43.2458 9.57574 42.9592 9.28918 42.6058 9.28918Z" fill="url(#paint5_linear)"/>
<path d="M22.5781 24.7499C23.142 24.7499 23.706 24.5483 24.2421 24.1459C24.525 23.9338 24.5821 23.5325 24.37 23.25C24.1584 22.9677 23.7575 22.91 23.474 23.1221C22.8458 23.5933 22.3103 23.5933 21.6821 23.1221C21.3999 22.91 20.9978 22.9677 20.7861 23.25C20.574 23.5328 20.6311 23.9336 20.914 24.1459C21.4506 24.5487 22.0144 24.7499 22.5781 24.7499Z" fill="url(#paint6_linear)"/>
<path d="M40.5019 23.3691H40.0456V22.0891C40.0456 21.7357 39.759 21.4491 39.4056 21.4491H35.5656C35.2122 21.4491 34.9256 21.7357 34.9256 22.0891V23.3691H34.4693C33.6621 23.3691 33.0056 24.0257 33.0056 24.8328V39.1853C33.0056 39.9925 33.6623 40.6489 34.4693 40.6489H40.5018C41.309 40.6489 41.9654 39.9923 41.9654 39.1853V24.8328C41.9656 24.0257 41.309 23.3691 40.5019 23.3691ZM36.2056 22.7291H38.7656V23.3691H36.2056V22.7291ZM34.4693 24.6491H40.5018C40.603 24.6491 40.6854 24.7317 40.6854 24.8328V36.8091H34.2855V24.8328C34.2856 24.7317 34.3682 24.6491 34.4693 24.6491ZM40.5019 39.3691H34.4695C34.3682 39.3691 34.2858 39.2865 34.2858 39.1854V38.0891H40.6858V39.1854C40.6856 39.2867 40.603 39.3691 40.5019 39.3691Z" fill="url(#paint7_linear)"/>
<path d="M36.2058 31.0492H37.8779L36.8786 34.0466C36.7667 34.382 36.948 34.7444 37.2832 34.8562C37.3504 34.8788 37.4189 34.8893 37.4858 34.8893C37.7539 34.8893 38.0035 34.7197 38.093 34.4516L39.373 30.6116C39.4379 30.4162 39.4051 30.202 39.2848 30.0349C39.1645 29.8677 38.9714 29.769 38.7658 29.769H37.151L38.08 27.4468C38.2112 27.1183 38.0515 26.7461 37.7235 26.6146C37.3938 26.4844 37.0222 26.6431 36.8914 26.9711L35.6114 30.1711C35.5326 30.3682 35.5566 30.5917 35.6757 30.7676C35.7949 30.9439 35.9933 31.0492 36.2058 31.0492Z" fill="url(#paint8_linear)"/>
<defs>
<linearGradient id="paint0_linear" x1="18.4199" y1="9.9292" x2="18.4199" y2="42.569" gradientUnits="userSpaceOnUse">
<stop stop-color="#C45ED3"/>
<stop offset="1" stop-color="#FBA2B8"/>
</linearGradient>
<linearGradient id="paint1_linear" x1="40.0458" y1="6.72925" x2="40.0458" y2="9.28924" gradientUnits="userSpaceOnUse">
<stop stop-color="#C45ED3"/>
<stop offset="1" stop-color="#FBA2B8"/>
</linearGradient>
<linearGradient id="paint2_linear" x1="40.0458" y1="10.5693" x2="40.0458" y2="13.1293" gradientUnits="userSpaceOnUse">
<stop stop-color="#C45ED3"/>
<stop offset="1" stop-color="#FBA2B8"/>
</linearGradient>
<linearGradient id="paint3_linear" x1="38.1257" y1="9.28918" x2="38.1257" y2="10.5692" gradientUnits="userSpaceOnUse">
<stop stop-color="#C45ED3"/>
<stop offset="1" stop-color="#FBA2B8"/>
</linearGradient>
<linearGradient id="paint4_linear" x1="29.8072" y1="5.43066" x2="29.8072" y2="6.79915" gradientUnits="userSpaceOnUse">
<stop stop-color="#C45ED3"/>
<stop offset="1" stop-color="#FBA2B8"/>
</linearGradient>
<linearGradient id="paint5_linear" x1="41.9658" y1="9.28918" x2="41.9658" y2="10.5692" gradientUnits="userSpaceOnUse">
<stop stop-color="#C45ED3"/>
<stop offset="1" stop-color="#FBA2B8"/>
</linearGradient>
<linearGradient id="paint6_linear" x1="22.578" y1="22.9941" x2="22.578" y2="24.7499" gradientUnits="userSpaceOnUse">
<stop stop-color="#C45ED3"/>
<stop offset="1" stop-color="#FBA2B8"/>
</linearGradient>
<linearGradient id="paint7_linear" x1="37.4855" y1="21.4491" x2="37.4855" y2="40.6489" gradientUnits="userSpaceOnUse">
<stop stop-color="#C45ED3"/>
<stop offset="1" stop-color="#FBA2B8"/>
</linearGradient>
<linearGradient id="paint8_linear" x1="37.4857" y1="26.5691" x2="37.4857" y2="34.8893" gradientUnits="userSpaceOnUse">
<stop stop-color="#C45ED3"/>
<stop offset="1" stop-color="#FBA2B8"/>
</linearGradient>
</defs>
</svg>

<svg xmlns="http://www.w3.org/2000/svg" xmlns:xlink="http://www.w3.org/1999/xlink" width="49" height="48" fill="none"  ><path d="M31.086 10.569a.64.64 0 0 0-.64-.64H14.645a8.87 8.87 0 0 0-8.76 10.405l1.983 11.464a.64.64 0 0 0 .631.531h1.468v9.6a.64.64 0 0 0 .64.64h10.24a.64.64 0 0 0 .64-.64v-3.84h2.183c1.972 0 3.577-1.605 3.577-3.577v-4.103h1.149a1.43 1.43 0 0 0 1.311-2.018l-2.46-5.533v-.869c.85.483 1.932.353 2.632-.347l.38-.38a.64.64 0 0 0-.905-.905l-.38.38c-.306.307-.79.355-1.151.114-.181-.121-.375-.211-.576-.273v-1.149c.85.483 1.932.353 2.632-.347l.38-.38a.64.64 0 0 0-.905-.905l-.38.38c-.306.307-.79.355-1.151.114-.181-.121-.375-.211-.576-.273V16.48c2.156-.999 3.84-3.4 3.84-5.91zM7.146 20.116c-.383-2.218.228-4.476 1.677-6.198s3.571-2.709 5.821-2.709H29.76c-.337 2.347-2.461 4.48-4.621 4.48h-6.652c-2.228 0-4.041 1.813-4.041 4.041v2.359h-1.143a3.51 3.51 0 0 0-2.968 1.636c-.618.969-.703 2.107-.232 3.123.426.918 1.223 1.578 2.138 1.813l-1.763 2.389H9.037L7.146 20.116zm18.819-3.147v1.049a2.2 2.2 0 0 0-.576.273c-.361.24-.845.192-1.151-.114l-.38-.38a.64.64 0 0 0-.905.905l.38.38c.423.422.986.641 1.552.641.372 0 .743-.1 1.08-.291v1.147a2.2 2.2 0 0 0-.576.273c-.361.24-.845.192-1.151-.114l-.38-.38a.64.64 0 0 0-.905.905l.38.38c.423.422.986.641 1.552.641.372 0 .743-.1 1.08-.291v1.003c0 .09.019.178.055.26l2.515 5.657a.15.15 0 0 1-.012.148c-.021.032-.061.071-.13.071h-1.789a.64.64 0 0 0-.64.64v1.96c-1.038-.085-2.099.062-2.982.447l-.473.206a.64.64 0 0 0 .256 1.227c.085 0 .172-.017.255-.053l.474-.206c.724-.316 1.609-.427 2.471-.339v1.5a2.3 2.3 0 0 1-2.298 2.297h-3.621a6.66 6.66 0 0 1-4.74-1.964l-1.049-1.049a.64.64 0 0 0-.905.905l1.049 1.049a7.93 7.93 0 0 0 5.645 2.338h.158v3.2h-8.96v-9.125l2.709-3.671a.64.64 0 0 0-.515-1.02h-.462c-.723 0-1.38-.446-1.713-1.165-.284-.611-.229-1.302.149-1.895.418-.654 1.124-1.044 1.889-1.044h1.783a.64.64 0 0 0 .64-.64V19.73c0-1.522 1.238-2.761 2.761-2.761h7.479z" fill="url(#A)"/><path d="M40.046 9.289a.64.64 0 0 0 .64-.64v-1.28a.64.64 0 1 0-1.28 0v1.28a.64.64 0 0 0 .64.64z" fill="url(#B)"/><path d="M40.046 10.569a.64.64 0 0 0-.64.64v1.28a.64.64 0 1 0 1.28 0v-1.28a.64.64 0 0 0-.64-.64z" fill="url(#C)"/><path d="M37.486 10.569h1.28a.64.64 0 1 0 0-1.28h-1.28a.64.64 0 1 0 0 1.28z" fill="url(#D)"/><path d="M29.807 6.799c.378 0 .684-.306.684-.684s-.306-.684-.684-.684-.684.306-.684.684.306.684.684.684z" fill="url(#E)"/><path d="M42.606 9.289h-1.28a.64.64 0 1 0 0 1.28h1.28a.64.64 0 1 0 0-1.28z" fill="url(#F)"/><path d="M22.578 24.75c.564 0 1.128-.202 1.664-.604a.64.64 0 0 0-.768-1.024c-.628.471-1.164.471-1.792 0a.64.64 0 0 0-.768 1.024c.537.403 1.1.604 1.664.604z" fill="url(#G)"/><path d="M40.502 23.369h-.456v-1.28a.64.64 0 0 0-.64-.64h-3.84a.64.64 0 0 0-.64.64v1.28h-.456c-.807 0-1.464.657-1.464 1.464v14.353c0 .807.657 1.464 1.464 1.464h6.033c.807 0 1.464-.657 1.464-1.464V24.833c0-.807-.656-1.464-1.464-1.464zm-4.296-.64h2.56v.64h-2.56v-.64zm-1.736 1.92h6.033c.101 0 .184.083.184.184v11.976h-6.4V24.833c0-.101.083-.184.184-.184zm6.033 14.72H34.47c-.101 0-.184-.083-.184-.184v-1.096h6.4v1.096c0 .101-.083.184-.184.184z" fill="url(#H)"/><path d="M36.206 31.049h1.672l-.999 2.997a.64.64 0 0 0 .405.81c.067.023.136.033.203.033a.64.64 0 0 0 .607-.438l1.28-3.84a.64.64 0 0 0-.607-.843h-1.615l.929-2.322a.64.64 0 1 0-1.189-.476l-1.28 3.2a.64.64 0 0 0 .594.878z" fill="url(#I)"/><defs><linearGradient id="A" x1="18.42" y1="9.929" x2="18.42" y2="42.569" xlink:href="#J"><stop stop-color="#c45ed3"/><stop offset="1" stop-color="#fba2b8"/></linearGradient><linearGradient id="B" x1="40.046" y1="6.729" x2="40.046" y2="9.289" xlink:href="#J"><stop stop-color="#c45ed3"/><stop offset="1" stop-color="#fba2b8"/></linearGradient><linearGradient id="C" x1="40.046" y1="10.569" x2="40.046" y2="13.129" xlink:href="#J"><stop stop-color="#c45ed3"/><stop offset="1" stop-color="#fba2b8"/></linearGradient><linearGradient id="D" x1="38.126" y1="9.289" x2="38.126" y2="10.569" xlink:href="#J"><stop stop-color="#c45ed3"/><stop offset="1" stop-color="#fba2b8"/></linearGradient><linearGradient id="E" x1="29.807" y1="5.431" x2="29.807" y2="6.799" xlink:href="#J"><stop stop-color="#c45ed3"/><stop offset="1" stop-color="#fba2b8"/></linearGradient><linearGradient id="F" x1="41.966" y1="9.289" x2="41.966" y2="10.569" xlink:href="#J"><stop stop-color="#c45ed3"/><stop offset="1" stop-color="#fba2b8"/></linearGradient><linearGradient id="G" x1="22.578" y1="22.994" x2="22.578" y2="24.75" xlink:href="#J"><stop stop-color="#c45ed3"/><stop offset="1" stop-color="#fba2b8"/></linearGradient><linearGradient id="H" x1="37.486" y1="21.449" x2="37.486" y2="40.649" xlink:href="#J"><stop stop-color="#c45ed3"/><stop offset="1" stop-color="#fba2b8"/></linearGradient><linearGradient id="I" x1="37.486" y1="26.569" x2="37.486" y2="34.889" xlink:href="#J"><stop stop-color="#c45ed3"/><stop offset="1" stop-color="#fba2b8"/></linearGradient><linearGradient id="J" gradientUnits="userSpaceOnUse"/></defs></svg>
